dist/img/partners/partner_5.svg

<svg width="241" height="65" viewBox="0 0 241 65" fill="none" xmlns="http://www.w3.org/2000/svg">
<g clip-path="url(#clip0_306_3412)">
<path d="M100.992 39.2045V29.5803C100.992 29.3291 100.823 29.1618 100.571 29.1618H97.3705V25.3957H100.571C100.823 25.3957 100.992 25.2282 100.992 24.9772V18.9517H105.539V24.9772C105.539 25.2282 105.707 25.3957 105.96 25.3957H110.423V29.1618H105.96C105.707 29.1618 105.539 29.3291 105.539 29.5803V38.1166C105.539 42.1338 106.97 42.4685 108.823 42.4685C109.497 42.4685 110.507 42.3848 111.096 42.301V46.2344C110.339 46.3181 109.076 46.4856 107.644 46.4856C105.875 46.4019 100.992 46.4019 100.992 39.2045ZM224.609 41.5479L228.314 39.6229C229.156 41.5479 230.756 42.8032 232.608 42.8032C234.04 42.8032 235.64 42.2173 235.64 40.4598C235.64 39.2882 234.882 38.6186 233.114 38.0329L230.588 37.196C227.051 36.108 225.282 34.0995 225.282 31.254C225.282 27.6553 228.314 24.9772 232.44 24.9772C235.724 24.9772 238.503 26.7347 239.85 29.4965L236.145 31.505C235.303 29.7475 233.956 28.7434 232.356 28.7434C230.756 28.7434 229.661 29.5803 229.661 30.8356C229.661 31.9234 230.503 32.7605 232.187 33.2625L234.714 34.0995C238.419 35.2711 240.187 37.2796 240.187 40.0414C240.187 44.3934 236.398 46.6531 232.608 46.6531C228.819 46.5693 225.788 44.6444 224.609 41.5479ZM210.63 37.7817C210.546 37.8655 210.462 37.9492 210.462 38.0329V46.0672H205.83V16.3571H210.462V32.593C210.462 32.7605 210.546 32.9278 210.714 32.9278C210.883 33.0115 211.051 32.9277 211.136 32.844L218.63 25.3119H224.272L215.514 34.0995C215.346 34.2668 215.346 34.4342 215.514 34.6015L225.03 46.0672H219.388L212.062 37.0286C211.977 36.9449 211.893 36.8611 211.809 36.8611C211.725 36.8611 211.641 36.8611 211.557 36.9449L210.63 37.7817ZM203.557 28.1575L200.609 30.9193C198.925 29.664 197.241 29.0781 195.389 29.0781C191.515 29.0781 188.652 31.9234 188.652 35.7733C188.652 39.6229 191.515 42.4685 195.389 42.4685C197.073 42.4685 198.841 41.8826 200.694 40.6273L203.304 43.3891C199.515 46.1509 197.494 46.6531 194.883 46.6531C191.768 46.6531 188.989 45.565 186.968 43.5563C185.031 41.6316 183.936 38.7861 183.936 35.7733C183.936 29.4965 188.568 24.8935 194.968 24.8935C197.073 24.8935 200.189 25.2282 203.557 28.1575ZM181.831 19.2026C181.831 20.7091 180.568 21.9645 179.052 21.9645C177.536 21.9645 176.273 20.7091 176.273 19.2026C176.273 17.6962 177.536 16.4408 179.052 16.4408C180.568 16.4408 181.831 17.6962 181.831 19.2026ZM181.41 46.0672H176.779V25.3957H181.41V46.0672ZM166.674 37.0286V46.1509H162.042V25.4794H166.589V27.99C166.589 28.1575 166.674 28.3249 166.842 28.4085C167.011 28.4922 167.179 28.4085 167.263 28.2412C168.442 26.3163 170.631 25.061 172.989 25.061C173.326 25.061 173.579 25.061 173.747 25.1447V29.8312C173.494 29.7475 173.073 29.7475 172.653 29.7475C168.947 29.664 166.674 32.5093 166.674 37.0286ZM141.832 35.7733C141.832 32.0071 144.696 29.0781 148.401 29.0781C152.106 29.0781 154.969 32.0071 154.969 35.7733C154.969 39.5392 152.106 42.4685 148.401 42.4685C144.696 42.4685 141.832 39.5392 141.832 35.7733ZM142.253 43.6401C142.338 43.6401 142.338 43.6401 142.422 43.6401C142.506 43.6401 142.674 43.7238 142.759 43.8075C144.359 45.6487 146.716 46.6531 149.411 46.6531C155.137 46.6531 159.516 41.8826 159.516 35.7733C159.516 32.7605 158.506 30.0824 156.569 27.99C154.716 25.9816 152.106 24.8935 149.327 24.8935C146.716 24.8935 144.274 25.9816 142.674 27.9063C142.59 27.99 142.422 28.0738 142.253 27.99C142.085 27.9063 142.001 27.8228 142.001 27.6553V16.4408H137.369V46.1509H142.001V44.0585C142.001 43.8075 142.085 43.7238 142.253 43.6401ZM123.054 42.4685C119.433 42.4685 116.486 39.5392 116.486 35.7733C116.486 32.0071 119.349 29.0781 123.054 29.0781C126.759 29.0781 129.622 32.0071 129.622 35.7733C129.622 39.5392 126.675 42.4685 123.054 42.4685ZM133.917 46.0672V25.3957H129.37V27.4879C129.37 27.6553 129.285 27.8228 129.117 27.8228C128.949 27.9063 128.78 27.8228 128.696 27.739C127.18 25.8978 124.822 24.8935 122.043 24.8935C116.317 24.8935 111.939 29.664 111.939 35.7733C111.939 41.8826 116.402 46.6531 122.043 46.6531C124.654 46.6531 127.096 45.565 128.696 43.6401C128.78 43.4728 128.949 43.4728 129.117 43.5563C129.285 43.6401 129.37 43.7238 129.37 43.8912V46.1509H133.917V46.0672ZM84.0658 42.4685C80.4447 42.4685 77.4975 39.5392 77.4975 35.7733C77.4975 32.0071 80.3606 29.0781 84.0658 29.0781C87.6866 29.0781 90.634 32.0071 90.634 35.7733C90.634 39.5392 87.6866 42.4685 84.0658 42.4685ZM94.9286 46.0672V25.3957H90.3813V27.4879C90.3813 27.6553 90.2972 27.8228 90.1287 27.8228C89.9603 27.9063 89.7918 27.8228 89.7077 27.739C88.1919 25.8978 85.834 24.8935 83.0553 24.8935C77.329 24.8935 72.9502 29.664 72.9502 35.7733C72.9502 41.8826 77.4134 46.6531 83.0553 46.6531C85.6657 46.6531 88.1077 45.565 89.7077 43.6401C89.7918 43.4728 89.9603 43.4728 90.1287 43.5563C90.2972 43.6401 90.3813 43.7238 90.3813 43.8912V46.1509H94.9286V46.0672ZM59.477 42.4685C55.7718 42.4685 52.9088 39.5392 52.9088 35.7733C52.9088 32.0071 55.7718 29.0781 59.477 29.0781C63.0979 29.0781 66.0452 32.0071 66.0452 35.7733C66.0452 39.5392 63.0979 42.4685 59.477 42.4685ZM70.3398 46.0672V16.4408H65.7084V27.5716C65.7084 27.739 65.6242 27.9063 65.4558 27.9063C65.2873 27.99 65.1189 27.9063 65.0347 27.8228C63.4348 25.9816 61.077 24.9772 58.3823 24.9772C52.6562 24.9772 48.2773 29.7475 48.2773 35.857C48.2773 38.8698 49.2878 41.5479 51.2246 43.6401C53.0772 45.6487 55.6876 46.7366 58.4665 46.7366C61.077 46.7366 63.519 45.6487 65.1189 43.7238C65.2031 43.6401 65.3716 43.5563 65.54 43.6401C65.7084 43.7238 65.7926 43.8075 65.7926 43.975V46.1509H70.3398V46.0672Z" fill="black"/>
<path d="M36.5552 28.1155L19.264 37.9242L0.870361 27.4732L0 27.9403V35.5304L19.264 46.507L36.5552 36.6981V40.7267L19.264 50.5355L0.870361 40.0845L0 40.5516V41.8361L19.264 52.8125L38.5862 41.8361V34.2459L37.7158 33.7788L19.264 44.2299L2.03079 34.421V30.4509L19.264 40.2013L38.5862 29.2248V21.7514L37.5997 21.2259L19.264 31.6185L2.95914 22.3353L19.264 13.1104L32.7256 20.7005L33.9441 20.0582V19.1241L19.264 10.8333L0 21.7514V22.9191L19.264 33.8956L36.5552 24.0868V28.1155Z" fill="#FF3621"/>
</g>
<defs>
<clipPath id="clip0_306_3412">
<rect width="241" height="65" fill="white"/>
</clipPath>
</defs>
</svg>

<svg width="241" height="65" viewBox="0 0 241 65" fill="none" xmlns="http://www.w3.org/2000/svg"><g clip-path="url(#clip0_306_3412)"><path d="M100.992 39.205V29.58c0-.25-.169-.418-.421-.418h-3.2v-3.766h3.2c.252 0 .421-.168.421-.419v-6.025h4.547v6.025c0 .251.168.419.421.419h4.463v3.766h-4.463c-.253 0-.421.167-.421.418v8.537c0 4.017 1.431 4.352 3.284 4.352.674 0 1.684-.084 2.273-.168v3.933c-.757.084-2.02.252-3.452.252-1.769-.084-6.652-.084-6.652-7.281zm123.617 2.343l3.705-1.925c.842 1.925 2.442 3.18 4.294 3.18 1.432 0 3.032-.586 3.032-2.343 0-1.172-.758-1.841-2.526-2.427l-2.526-.837c-3.537-1.088-5.306-3.096-5.306-5.942 0-3.599 3.032-6.277 7.158-6.277 3.284 0 6.063 1.758 7.41 4.52l-3.705 2.008c-.842-1.758-2.189-2.762-3.789-2.762s-2.695.837-2.695 2.093c0 1.087.842 1.925 2.526 2.427l2.527.837c3.705 1.171 5.473 3.18 5.473 5.941 0 4.352-3.789 6.612-7.579 6.612-3.789-.084-6.82-2.009-7.999-5.105zm-13.979-3.766c-.084.084-.168.167-.168.25v8.035h-4.632v-29.71h4.632v16.236c0 .167.084.335.252.335.169.084.337 0 .422-.084l7.494-7.532h5.642l-8.758 8.787c-.168.168-.168.335 0 .503l9.516 11.465h-5.642l-7.326-9.038c-.085-.084-.169-.168-.253-.168-.084 0-.168 0-.252.084l-.927.837zm-7.073-9.624l-2.948 2.761c-1.684-1.255-3.368-1.84-5.22-1.84-3.874 0-6.737 2.844-6.737 6.694s2.863 6.695 6.737 6.695c1.684 0 3.452-.585 5.305-1.84l2.61 2.761c-3.789 2.762-5.81 3.264-8.421 3.264-3.115 0-5.894-1.088-7.915-3.097-1.937-1.924-3.032-4.77-3.032-7.783 0-6.277 4.632-10.88 11.032-10.88 2.105 0 5.221.335 8.589 3.264zm-21.726-8.955c0 1.506-1.263 2.762-2.779 2.762s-2.779-1.256-2.779-2.762c0-1.507 1.263-2.762 2.779-2.762s2.779 1.255 2.779 2.762zm-.421 26.864h-4.631V25.396h4.631v20.671zm-14.736-9.038v9.122h-4.632V25.479h4.547v2.511a.46.46 0 00.253.419c.169.083.337 0 .421-.168 1.179-1.925 3.368-3.18 5.726-3.18.337 0 .59 0 .758.084v4.686c-.253-.084-.674-.084-1.094-.084-3.706-.083-5.979 2.762-5.979 7.282zm-24.842-1.256c0-3.766 2.864-6.695 6.569-6.695s6.568 2.93 6.568 6.695c0 3.766-2.863 6.695-6.568 6.695-3.705 0-6.569-2.929-6.569-6.695zm.421 7.867h.169c.084 0 .252.084.337.167 1.6 1.842 3.957 2.846 6.652 2.846 5.726 0 10.105-4.77 10.105-10.88 0-3.013-1.01-5.69-2.947-7.783-1.853-2.008-4.463-3.096-7.242-3.096-2.611 0-5.053 1.088-6.653 3.012-.084.084-.252.168-.421.084-.168-.084-.252-.167-.252-.335V16.441h-4.632v29.71h4.632v-2.093c0-.25.084-.334.252-.418zm-19.199-1.172c-3.621 0-6.568-2.929-6.568-6.695 0-3.766 2.863-6.695 6.568-6.695 3.705 0 6.568 2.93 6.568 6.695 0 3.766-2.947 6.695-6.568 6.695zm10.863 3.6V25.395h-4.547v2.092c0 .167-.085.335-.253.335-.168.083-.337 0-.421-.084-1.516-1.841-3.874-2.846-6.653-2.846-5.726 0-10.104 4.771-10.104 10.88 0 6.11 4.463 10.88 10.104 10.88 2.611 0 5.053-1.088 6.653-3.013.084-.167.253-.167.421-.084.168.084.253.168.253.335v2.26h4.547v-.084zm-49.851-3.6c-3.621 0-6.569-2.929-6.569-6.695 0-3.766 2.864-6.695 6.569-6.695 3.62 0 6.568 2.93 6.568 6.695 0 3.766-2.947 6.695-6.568 6.695zm10.863 3.6V25.395H90.38v2.092c0 .167-.084.335-.252.335-.169.083-.337 0-.421-.084-1.516-1.841-3.874-2.846-6.653-2.846-5.726 0-10.105 4.771-10.105 10.88 0 6.11 4.463 10.88 10.105 10.88 2.61 0 5.053-1.088 6.653-3.013.084-.167.252-.167.42-.084.17.084.253.168.253.335v2.26h4.548v-.084zm-35.452-3.6c-3.705 0-6.568-2.929-6.568-6.695 0-3.766 2.863-6.695 6.568-6.695 3.62 0 6.568 2.93 6.568 6.695 0 3.766-2.947 6.695-6.568 6.695zm10.863 3.6V16.44h-4.632v11.13c0 .168-.084.335-.252.335-.169.084-.337 0-.421-.083-1.6-1.841-3.958-2.846-6.653-2.846-5.726 0-10.105 4.77-10.105 10.88 0 3.013 1.01 5.69 2.948 7.783 1.852 2.009 4.463 3.097 7.242 3.097 2.61 0 5.052-1.088 6.652-3.013.084-.084.253-.168.421-.084.168.084.253.167.253.335v2.176h4.547v-.084z" fill="#000"/><path d="M36.555 28.116l-17.291 9.808L.87 27.474 0 27.94v7.59l19.264 10.977 17.291-9.809v4.029l-17.291 9.809L.87 40.084l-.87.468v1.284l19.264 10.977 19.322-10.977v-7.59l-.87-.467-18.452 10.45-17.233-9.808v-3.97l17.233 9.75 19.322-10.976V21.75l-.986-.525-18.336 10.393-16.305-9.284 16.305-9.225 13.462 7.59 1.218-.642v-.934l-14.68-8.29L0 21.75v1.168l19.264 10.977 17.291-9.81v4.03z" fill="#FF3621"/></g><defs><clipPath id="clip0_306_3412"><path fill="#fff" d="M0 0h241v65H0z"/></clipPath></defs></svg>
